X: 1971
T: Arthur McBride
R: jig
M: 6/8
K: Gmajor
GAG GDE|GAG B2d|edc BdB|ABG E2D|
GAG GDE|GAG Bcd|edc Bcd|e3 d2B||
d2B Bcd|edd d2B|cdc BdB|ABG E2D|
GAG GDE|GAG B2d|dcB AEF|G3 G3||

